Adwaita++/apps/16/com.github.junrrein.PDFSlicer.svg

<svg height="16" width="16" xmlns="http://www.w3.org/2000/svg">
  <path d="m8 .25-1 1v5.1953125l2-1.1542969v-4.0410156zm5.328125 3.6972656-8.6289062 4.9824219c-.7765009-.5670556-1.8479895-.6665713-2.7285157-.1582031-1.18803998.68592-1.6019356 2.2279756-.9160156 3.4160156.68591 1.18804 2.2279756 1.601926 3.4160156.916016.8802577-.508221 1.3309767-1.487645 1.2285157-2.44336l1.3007812-.7519529v1.3066409c-.8785838.38926-1.5 1.268957-1.5 2.285156 0 1.37183 1.12817 2.5 2.5 2.5s2.5-1.12817 2.5-2.5c0-1.016199-.6214162-1.895896-1.5-2.285156v-2.4609378l5.328125-3.0761718.367187-1.3652344zm-10.2285156 5.9941406c.386775-.0504145.7758856.1316018.9863281.4960938.28058.48598.1207556 1.084654-.3652344 1.365234-.48598.28059-1.0866075.120746-1.3671875-.365234-.28059-.48599-.1187925-1.084644.3671875-1.365234.1214975-.070145.2499813-.1140549.3789063-.1308598zm4.9003906 2.5585938c.56117 0 1 .43883 1 1s-.43883 1-1 1-1-.43883-1-1 .43883-1 1-1z" fill="#444"/>
</svg>

<svg xmlns="http://www.w3.org/2000/svg" width="16" height="16" version="1.1">
 <title id="title9167">
  Gnome Symbolic Icon Theme
 </title>
 <g style="enable-background:new" transform="translate(-160,-171.75)">
  <path fill="#444" d="M 8 0.25 L 7 1.25 L 7 6.4453125 L 9 5.2910156 L 9 1.25 L 8 0.25 z M 13.328125 3.9472656 L 4.6992188 8.9296875 C 3.9227179 8.3626319 2.8512293 8.2631162 1.9707031 8.7714844 C 0.78266312 9.4574044 0.3687675 10.99946 1.0546875 12.1875 C 1.7405975 13.37554 3.2826631 13.789426 4.4707031 13.103516 C 5.3509608 12.595295 5.8016798 11.615871 5.6992188 10.660156 L 7 9.9082031 L 7 11.214844 C 6.1214162 11.604104 5.5 12.483801 5.5 13.5 C 5.5 14.87183 6.62817 16 8 16 C 9.37183 16 10.5 14.87183 10.5 13.5 C 10.5 12.483801 9.8785838 11.604104 9 11.214844 L 9 8.7539062 L 14.328125 5.6777344 L 14.695312 4.3125 L 13.328125 3.9472656 z M 3.0996094 9.9414062 C 3.4863844 9.8909917 3.875495 10.073008 4.0859375 10.4375 C 4.3665175 10.92348 4.2066931 11.522154 3.7207031 11.802734 C 3.2347231 12.083324 2.6340956 11.92348 2.3535156 11.4375 C 2.0729256 10.95151 2.2347231 10.352856 2.7207031 10.072266 C 2.8422006 10.002121 2.9706844 9.9582111 3.0996094 9.9414062 z M 8 12.5 C 8.56117 12.5 9 12.93883 9 13.5 C 9 14.06117 8.56117 14.5 8 14.5 C 7.43883 14.5 7 14.06117 7 13.5 C 7 12.93883 7.43883 12.5 8 12.5 z" transform="translate(160,171.75)"/>
 </g>
</svg>
